public/themes/shop/default/build/assets/logo-942157c2.svg

<svg width="131" height="29" viewBox="0 0 131 29" fill="none" xmlns="http://www.w3.org/2000/svg">
<path d="M20.5 3H9L15 12L20.5 3Z" fill="#FBC256"/>
<path d="M10 10H1L14.5 29L33 0H25.5L14.5 17.5L10 10Z" fill="#FBC256"/>
<path d="M20.5 3H9L15 12L20.5 3Z" fill="#4D7EA8"/>
<path d="M104.706 5.34662C104.706 6.64154 103.648 7.69127 102.343 7.69127C101.038 7.69127 99.9807 6.64154 99.9807 5.34662C99.9807 4.0517 101.038 3.00196 102.343 3.00196C103.648 3.00196 104.706 4.0517 104.706 5.34662Z" fill="#060C3B"/>
<path d="M100.318 14.8592V21.0223H102.377H104.436V14.8592V8.69611H102.377H100.318V14.8592Z" fill="#060C3B"/>
<path d="M110.072 5.7884C109.181 6.06091 108.293 6.33008 108.098 6.38655L107.743 6.48918V7.59264V8.69611H106.832H105.921V10.6723V12.6485H106.822H107.724L107.763 15.0434C107.796 17.0821 107.822 17.5308 107.937 18.06C108.425 20.3195 110.021 21.2729 113.076 21.1302C113.577 21.1068 114.101 21.069 114.24 21.0462L114.493 21.0047V19.1779V17.351L113.599 17.3273C112.569 17.3 112.262 17.197 112.031 16.8019C111.904 16.5835 111.893 16.4329 111.873 14.6095L111.852 12.6515L113.155 12.6333L114.459 12.615L114.477 10.6556L114.495 8.69611H113.178H111.861V6.98786C111.861 5.66239 111.842 5.28108 111.776 5.28624C111.73 5.28986 110.963 5.51582 110.072 5.7884Z" fill="#060C3B"/>
<path d="M115.475 8.94732C117.992 14.9204 120.304 20.587 120.274 20.7074C120.21 20.9594 119.836 21.4051 119.506 21.6219C119.08 21.9019 118.63 22.0275 117.885 22.0744L117.261 22.1138V24.0569V26L118.088 25.9561C118.542 25.932 119.158 25.8697 119.456 25.8177C121.23 25.5082 122.636 24.5976 123.629 23.1151C124.32 22.0827 124.444 21.753 128.503 10.1196L129 8.69611H126.719H124.439L123.509 12.1259C122.997 14.0123 122.557 15.6143 122.53 15.6859C122.483 15.8125 122.21 15.0693 120.513 10.1874L119.994 8.69778L117.682 8.69691L115.369 8.69611L115.475 8.94732Z" fill="#060C3B"/>
<path d="M92.1184 8.46513C89.3411 8.98577 87.3282 10.9874 86.8509 13.7033C86.2565 17.0864 88.2766 20.2642 91.5769 21.1377C92.1809 21.2976 92.3691 21.3162 93.3657 21.3144C94.5906 21.3123 95.0307 21.2307 96.0186 20.8225C97.0271 20.4059 98.0499 19.5734 98.6846 18.6527L99.0019 18.1924L98.8482 18.0907C98.7637 18.0348 97.976 17.5761 97.0977 17.0714L95.5009 16.1539L95.2919 16.4257C94.6437 17.2692 93.4346 17.5918 92.389 17.2002C90.8062 16.6073 90.3689 14.2808 91.6085 13.0476C92.5801 12.0811 94.2628 12.1399 95.1906 13.173L95.515 13.5342L97.191 12.5776C98.1128 12.0514 98.8938 11.5979 98.9266 11.5697C99.0286 11.4822 98.6352 10.9083 98.0791 10.3334C96.8514 9.06428 95.4064 8.4465 93.5344 8.3905C92.9334 8.37248 92.4873 8.39599 92.1184 8.46513Z" fill="#060C3B"/>
<path fill-rule="evenodd" clip-rule="evenodd" d="M77.7409 8.46961C76.1693 8.75111 74.7163 9.58835 73.7422 10.7739C73.2912 11.3226 72.694 12.5105 72.4965 13.2514C72.277 14.0751 72.2775 15.6465 72.4974 16.467C73.2448 19.2544 75.6365 21.1767 78.5547 21.3353C80.5678 21.4448 82.4298 20.7226 83.767 19.3135C86.6995 16.2234 85.8902 11.171 82.1412 9.1641C80.8256 8.45976 79.215 8.20561 77.7409 8.46961ZM81.4182 14.8592C81.4182 13.6802 80.7451 12.7193 79.7047 12.4126C79.2964 12.2923 78.5161 12.291 78.1326 12.41C77.4918 12.6089 76.8714 13.195 76.6182 13.8408C76.4059 14.3824 76.4065 15.3373 76.6194 15.8806C76.8169 16.3846 77.3335 16.9434 77.8206 17.1799C78.3038 17.4145 79.1192 17.4741 79.6694 17.3149C80.7475 17.003 81.4182 16.0611 81.4182 14.8592Z" fill="#060C3B"/>
<path d="M66.4332 12.0111V21.0223H68.4922H70.5512L70.5341 12.0289L70.517 3.03544L68.4751 3.01769L66.4332 3V12.0111Z" fill="#060C3B"/>
<path fill-rule="evenodd" clip-rule="evenodd" d="M57.0387 8.45695C54.4094 8.91878 52.4748 10.6924 51.8454 13.2179C51.6689 13.9262 51.6087 15.148 51.7147 15.868C51.9699 17.6004 52.805 19.0235 54.1482 20.0156C54.9067 20.5759 55.7231 20.9286 56.8899 21.2C57.701 21.3887 59.6331 21.3725 60.448 21.1702C61.2068 20.9818 61.8216 20.7379 62.4093 20.3917C62.9037 20.1005 63.8682 19.2571 63.8682 19.116C63.8682 19.0695 63.212 18.5762 62.4099 18.0197L60.9515 17.0079L60.7055 17.2031C59.6339 18.0535 57.7363 18.0988 56.6402 17.3003C56.3197 17.0669 55.9707 16.6157 55.9707 16.4349C55.9707 16.3448 56.4611 16.333 60.2187 16.333C64.2894 16.333 64.4683 16.3278 64.5062 16.2093C64.5279 16.1413 64.5712 15.8116 64.6024 15.4767C64.9102 12.1662 62.9651 9.31918 59.8759 8.55858C59.148 8.37931 57.7631 8.32974 57.0387 8.45695ZM60.546 13.3017C60.2824 12.5381 59.5937 11.9871 58.7289 11.8478C58.4927 11.8098 58.2691 11.7819 58.232 11.786C57.4478 11.8711 56.872 12.103 56.4871 12.4886C56.2445 12.7318 55.9032 13.2938 55.9032 13.4502C55.9032 13.4965 56.6839 13.5194 58.2622 13.5194H60.6212L60.546 13.3017Z" fill="#060C3B"/>
<path d="M36 3.80415C36.1257 4.18224 37.5382 8.51021 38.8597 12.5815C40.1812 16.6529 41.3393 20.2176 41.4333 20.5031L41.6043 21.0223L44.2482 21.022L46.892 21.0218L49.6531 12.531C51.1718 7.86114 52.4283 3.98757 52.4454 3.92306C52.4746 3.81299 52.3278 3.80582 50.0519 3.80582H47.6273L45.9433 9.69513C45.0172 12.9342 44.2448 15.57 44.227 15.5524C44.2091 15.5348 43.4475 12.8922 42.5346 9.67986L40.8746 3.83932L38.4374 3.82177L36 3.80415Z" fill="#060C3B"/>
</svg>

<?xml version="1.0"?>
<svg width="131" height="29" xmlns="http://www.w3.org/2000/svg" xmlns:svg="http://www.w3.org/2000/svg">
 <g class="layer">
  <title>Layer 1</title>
  <path d="m20.5,3l-11.5,0l6,9l5.5,-9z" fill="#FBC256" id="svg_1"/>
  <path d="m10,10l-9,0l13.5,19l18.5,-29l-7.5,0l-11,17.5l-4.5,-7.5z" fill="#FBC256" id="svg_2"/>
  <path d="m20.5,3l-11.5,0l6,9l5.5,-9z" fill="#4D7EA8" id="svg_3"/>
  <text fill="#003f7f" font-family="Serif" font-size="24" id="svg_14" stroke-width="0" text-anchor="middle" transform="matrix(0.912902 0 0 0.659914 -23.6171 6.18755)" x="115.5" xml:space="preserve" y="19">PHPeitor</text>
 </g>
</svg>
